X:1
T:Out on the Ocean
Z:Richard Morgan
R:jig
M:6/8
K:G
D2B BAG | BdB A2 B|GED G2A | B2B AGE|
D2B BAG |BdB A2B | GED G2A |1 BGG GFE :|2 BGG GBd ||
~e3 edB | ege edB | d2d dBA | d2d dBA | 
G2A B2d | ege dBA | GED G2A | BGG G3 |
~e3 edB | ege edB | d2d def | gfe dBA |
G2A B2d | ege dBA | GED G2A | BGG G3 ||

